libs/ui/packages/crypto-icons/src/svg/VIBE.svg

<svg width="24" height="24" viewBox="0 0 24 24" fill="none">
<path d="M16.9723 11.9385C17.5198 12.0855 18.0598 12.2557 18.5458 12.555C18.7618 12.6877 18.9636 12.8437 19.1458 13.0192C19.4158 13.3192 19.3978 13.6358 19.1518 13.953C18.9358 14.229 18.6418 14.4052 18.3291 14.5522C17.5371 14.934 16.6971 15.1515 15.8391 15.2805C15.1423 15.3855 14.4343 15.4455 13.7316 15.5333C13.6985 15.5403 13.6672 15.5538 13.6394 15.573C13.6116 15.5921 13.5879 15.6166 13.5696 15.645C13.0776 16.3785 12.5916 17.1128 12.0996 17.847C12.0601 17.8954 12.024 17.9465 11.9916 18C11.4719 17.2203 10.9577 16.437 10.4488 15.6503C10.4274 15.6134 10.3968 15.5827 10.36 15.5612C10.3232 15.5396 10.2815 15.5279 10.2388 15.5272C8.83407 15.4275 7.44807 15.2453 6.12132 14.7698C5.70132 14.6228 5.29932 14.4405 4.95132 14.1645C4.93257 14.1465 4.90857 14.1345 4.89132 14.1173C4.38132 13.689 4.36857 13.2307 4.86132 12.7897C5.25132 12.4372 5.73132 12.2378 6.22932 12.0848C6.72732 11.9318 7.23132 11.8208 7.73607 11.6918C7.76007 11.6858 7.78407 11.6858 7.82607 11.6738C6.73932 10.0118 5.66532 8.367 4.56657 6.699C4.63257 6.693 4.68057 6.687 4.72257 6.687C5.40132 6.681 6.07932 6.687 6.75732 6.681C6.80526 6.67812 6.85299 6.68938 6.89459 6.71338C6.93619 6.73738 6.96982 6.77306 6.99132 6.816C8.63382 9.321 10.2748 11.8268 11.9136 14.3348C11.9376 14.3767 11.9658 14.4161 11.9976 14.4525C12.3756 13.8825 12.7416 13.3365 13.1016 12.7897C14.4216 10.7947 15.7423 8.802 17.0631 6.81075C17.1111 6.74025 17.1471 6.687 17.2551 6.687C17.9691 6.693 18.6838 6.693 19.3978 6.693C19.4316 6.693 19.4653 6.6945 19.4998 6.699C18.3854 8.38038 17.2689 10.0604 16.1503 11.739C16.4331 11.8088 16.7031 11.868 16.9731 11.9385H16.9723ZM6.67332 13.3485C6.81282 13.5038 6.97707 13.6373 7.15932 13.7415C7.90932 14.1413 8.73807 14.2875 9.59682 14.4165C9.58482 14.376 9.58482 14.358 9.57882 14.3468C9.09207 13.6117 8.61207 12.8723 8.12607 12.138C8.10657 12.1189 8.08281 12.1046 8.05674 12.0964C8.03067 12.0882 8.00303 12.0862 7.97607 12.0908C7.69107 12.1845 7.41207 12.2963 7.14132 12.426C6.96606 12.5226 6.80957 12.6498 6.67932 12.8018C6.60652 12.8736 6.56504 12.9713 6.56392 13.0735C6.5628 13.1758 6.60212 13.2743 6.67332 13.3478V13.3485ZM16.1263 13.9822C16.4534 13.8939 16.7527 13.7241 16.9963 13.4888C17.2371 13.2488 17.2371 12.978 16.9963 12.7313C16.9368 12.6668 16.8683 12.6113 16.7931 12.5662C16.5351 12.4372 16.2651 12.3142 16.0003 12.1852C15.9103 12.138 15.8563 12.1732 15.8023 12.2557C15.5203 12.6907 15.2323 13.1182 14.9443 13.548C14.7643 13.818 14.5843 14.094 14.3983 14.376C14.4461 14.382 14.4945 14.382 14.5423 14.376C15.0703 14.247 15.6043 14.1292 16.1263 13.9822ZM16.1323 6L12.0216 12.549L7.85607 6H16.1323Z" fill="#338BE5"/>
</svg>

<svg width="24" height="24" viewBox="0 0 24 24" fill="none"><path fill="#338be5" d="M16.972 11.939c.548.146 1.088.317 1.574.616q.325.2.6.464c.27.3.252.617.006.934-.216.276-.51.452-.823.6-.792.381-1.632.598-2.49.727-.697.106-1.405.165-2.107.253a.26.26 0 0 0-.162.112c-.492.733-.978 1.468-1.47 2.202q-.06.073-.108.153-.78-1.17-1.543-2.35a.25.25 0 0 0-.21-.123c-1.405-.1-2.79-.282-4.118-.757-.42-.147-.822-.33-1.17-.605-.018-.018-.042-.03-.06-.048-.51-.428-.522-.886-.03-1.327.39-.353.87-.552 1.368-.705s1.002-.264 1.507-.393c.024-.006.048-.006.09-.018-1.087-1.662-2.16-3.307-3.26-4.975.067-.006.115-.012.157-.012.678-.006 1.356 0 2.034-.006a.25.25 0 0 1 .234.135q2.464 3.757 4.923 7.519a1 1 0 0 0 .084.117c.378-.57.744-1.116 1.104-1.662q1.98-2.992 3.961-5.98c.048-.07.084-.123.192-.123q1.071.007 2.143.006.05 0 .102.006-1.672 2.521-3.35 5.04c.283.07.553.129.823.2m-10.299 1.41q.212.234.486.393c.75.4 1.58.545 2.438.674-.012-.04-.012-.058-.018-.07-.487-.734-.967-1.474-1.453-2.208a.17.17 0 0 0-.15-.047 7 7 0 0 0-.835.335 1.7 1.7 0 0 0-.462.376.39.39 0 0 0-.006.546m9.453.633a2 2 0 0 0 .87-.493c.241-.24.241-.511 0-.758a1 1 0 0 0-.203-.165c-.258-.129-.528-.252-.793-.38-.09-.048-.144-.013-.198.07-.282.435-.57.862-.858 1.292l-.546.828a.6.6 0 0 0 .144 0c.528-.129 1.062-.247 1.584-.394M16.132 6l-4.11 6.549L7.856 6z"/></svg>
